X: 34571
T: Rippling Waves
R: reel
M: 4/4
K: Gmajor
|:"G"G2AB "Am"cA"D"dc|"G"(3Bcd Gg "D"fadc|"G"B2"Am"AB "D"FADC|"G"(3B,CD GE "D"FAD2|
"G"dB"D"cA "G"Bd"Am"AG|"D"F2"Am"EG "D"FADC|"G"DG "G"(3FGA "G"Bc "Am"(3ABc|"D"d2dc AGFA:|
|:"G"BcdB g3a|"G"bc'"Am"ag "D"fada|"G"gagb "Am"abag|"D"fdde d2cA|
"D"B2AG "D"(3FGA DE|"Dm"=FEFG "D"ABce|"G"d3b "Am"abag|"D"(3fga da "G"g4:|

